lib/brands/icons/chai.svg

<svg xmlns="http://www.w3.org/2000/svg" fill="none" aria-hidden="true" viewBox="0 0 48 48"><g id="chai-Icon"><g id="Group"><path id="Vector" fill="#A1070C" d="M9.75945 32.2218L23.9996 40.4436L38.2405 32.2218V15.7786L23.9996 7.55706L9.75945 15.7786V32.2218ZM23.9996 42L8.41113 32.9999V15.0004L23.9996 6L39.5888 15.0004V32.9999L23.9996 42Z"/><path id="Vector_2" fill="url(#paint0_linear_94_17313)" d="M9.57812 15.6735L24.0004 7.34683L38.4226 15.6735V32.3269L24.0004 40.6535L9.57812 32.3269V15.6735Z"/><path id="Vector_3" fill="#A1070C" d="M30.617 17.9071C30.617 18.5613 30.4879 19.2112 30.2296 19.8567C29.9714 20.5023 29.625 21.1005 29.1903 21.6514C28.7556 22.2023 28.2542 22.6843 27.6861 23.0974C27.118 23.5106 26.5284 23.8076 25.9173 23.9883L25.6462 23.5364C26.0077 23.3557 26.3391 23.1233 26.6403 22.8392C26.9416 22.5552 27.1998 22.2345 27.415 21.8773C27.6302 21.5201 27.7959 21.1414 27.9121 20.7411C28.0283 20.3409 28.0864 19.9342 28.0864 19.521C28.0864 19.0476 28.0175 18.6 27.8798 18.1783C27.7421 17.7565 27.5398 17.3885 27.273 17.0744C27.0061 16.7602 26.6769 16.5127 26.2853 16.332C25.8936 16.1512 25.4439 16.0608 24.936 16.0608C24.3163 16.0608 23.7482 16.1813 23.2318 16.4223C22.7153 16.6633 22.2505 16.9883 21.8373 17.3971C21.4242 17.806 21.0648 18.2751 20.7592 18.8045C20.4537 19.3338 20.1998 19.889 19.9975 20.47C19.7952 21.051 19.6424 21.6385 19.5391 22.2324C19.4358 22.8263 19.3842 23.3858 19.3842 23.9109C19.3842 24.4445 19.4401 24.9954 19.552 25.5635C19.6639 26.1316 19.8275 26.6911 20.0427 27.242C20.2579 27.7928 20.5247 28.3136 20.8432 28.8042C21.1617 29.2948 21.5296 29.7252 21.9471 30.0953C22.3645 30.4655 22.8293 30.7603 23.3415 30.9798C23.8536 31.1993 24.411 31.309 25.0135 31.309C25.4267 31.309 25.8291 31.253 26.2207 31.1411C26.6123 31.0293 26.9889 30.8786 27.3504 30.6893C27.712 30.4999 28.0541 30.2761 28.3769 30.0179C28.6997 29.7596 28.9988 29.4799 29.2742 29.1786L29.7003 29.5918C29.3216 30.091 28.8718 30.5709 28.3511 31.0314C27.8303 31.4919 27.2687 31.9008 26.6661 32.258C26.0636 32.6152 25.4331 32.8992 24.7746 33.1101C24.1162 33.321 23.4642 33.4264 22.8186 33.4264C22.1902 33.4264 21.5985 33.3167 21.0433 33.0972C20.4881 32.8777 19.9781 32.5808 19.5133 32.2063C19.0485 31.8319 18.6332 31.3929 18.2674 30.8894C17.9016 30.3858 17.5917 29.85 17.3378 29.2819C17.0838 28.7138 16.8902 28.1285 16.7568 27.526C16.6233 26.9235 16.5566 26.3339 16.5566 25.7572C16.5566 24.9222 16.6965 24.0636 16.9763 23.1814C17.256 22.2991 17.6412 21.4427 18.1318 20.612C18.6224 19.7814 19.2013 18.996 19.8684 18.2557C20.5355 17.5155 21.2542 16.8699 22.0246 16.319C22.7949 15.7682 23.5997 15.3313 24.439 15.0086C25.2782 14.6858 26.1153 14.5244 26.9502 14.5244C27.4666 14.5244 27.9487 14.5997 28.3962 14.7503C28.8438 14.901 29.2312 15.1183 29.5583 15.4023C29.8853 15.6864 30.1436 16.0393 30.3329 16.4611C30.5223 16.8828 30.617 17.3649 30.617 17.9071Z"/></g></g><defs><linearGradient id="paint0_linear_94_17313" x1="24.0004" x2="24.0004" y1="22.4104" y2="40.6535" gradientUnits="userSpaceOnUse"><stop stop-color="#F7F6F3"/><stop offset="1" stop-color="#FEF6D5"/></linearGradient></defs></svg>

<svg xmlns="http://www.w3.org/2000/svg" fill="none" aria-hidden="true" viewBox="0 0 48 48"><path fill="#A1070C" d="M9.76 32.222 24 40.444l14.24-8.222V15.779L24 7.557 9.76 15.78v16.443ZM24 42 8.41 33V15L24 6l15.589 9v18l-15.59 9Z"/><path fill="url(#a)" d="M9.578 15.674 24 7.347l14.422 8.326v16.654L24 40.654 9.578 32.327V15.674Z"/><path fill="#A1070C" d="M30.617 17.907a5.21 5.21 0 0 1-.387 1.95 7.199 7.199 0 0 1-1.04 1.794 7.602 7.602 0 0 1-1.504 1.446 5.799 5.799 0 0 1-1.769.891l-.27-.452c.36-.18.692-.413.993-.697.302-.284.56-.604.775-.962.215-.357.38-.736.497-1.136.116-.4.174-.807.174-1.22 0-.473-.069-.921-.206-1.343a3.235 3.235 0 0 0-.607-1.104 2.835 2.835 0 0 0-.988-.742c-.391-.18-.841-.271-1.349-.271-.62 0-1.188.12-1.704.361a4.942 4.942 0 0 0-1.395.975 6.634 6.634 0 0 0-1.078 1.408 9.714 9.714 0 0 0-.762 1.665 11.177 11.177 0 0 0-.458 1.762 9.817 9.817 0 0 0-.155 1.679c0 .534.056 1.084.168 1.652.112.569.276 1.128.49 1.679.216.55.483 1.072.801 1.562.319.49.687.921 1.104 1.291.418.37.882.665 1.395.885a4.2 4.2 0 0 0 1.672.329 4.37 4.37 0 0 0 1.207-.168 5.951 5.951 0 0 0 1.13-.452c.361-.19.703-.413 1.026-.671.323-.258.622-.538.897-.84l.426.414a9.974 9.974 0 0 1-1.349 1.44c-.52.46-1.082.869-1.685 1.226a9.202 9.202 0 0 1-1.891.852 6.382 6.382 0 0 1-1.956.316c-.629 0-1.22-.11-1.776-.329a5.857 5.857 0 0 1-1.53-.89 6.849 6.849 0 0 1-1.246-1.318 9.124 9.124 0 0 1-1.51-3.363 8.162 8.162 0 0 1-.2-1.769c0-.835.14-1.693.42-2.576a12.43 12.43 0 0 1 1.155-2.569 14.67 14.67 0 0 1 1.736-2.356 13.38 13.38 0 0 1 2.157-1.937 10.82 10.82 0 0 1 2.414-1.31 6.953 6.953 0 0 1 2.511-.485c.517 0 .999.076 1.446.226.448.151.835.368 1.162.652.327.284.586.637.775 1.06.19.42.284.903.284 1.445Z"/><defs><linearGradient id="a" x1="24" x2="24" y1="22.41" y2="40.654" gradientUnits="userSpaceOnUse"><stop stop-color="#F7F6F3"/><stop offset="1" stop-color="#FEF6D5"/></linearGradient></defs></svg>
